X: 8
T: Inisheer
T: Inis O\'irr
O: trad. Ireland
M: 3/4
L: 1/8
K: G
D2 |\
"G"B3A B<d | B4D2 | "Em"E3B AB | "D7"D4D2 |\
"G"B3A B<d | B4d2 | G3 B "D7"A/2G/2F | "G"G3 :|
|: A Bd |\
"Em"e3f ed | B4d2 | "(G)"gf ed Bd | "Em"e4Bd |\
e3f ed |[1 B4d2 | "Em"E3B "D7"A/2G/2F | "G"G3 :|\
[2 "Bm"HB4d2 | "D7"D3B AB | "G"G4 |]

%%sep 1 1 500

